azure-icons/command-1071-Log.svg

<svg xmlns="http://www.w3.org/2000/svg" viewBox="0 0 14 15"><path d="M11 7V3H5v4zM6 6V4h4v2z"/><path d="M1 0v3H0v1h1v7H0v1h1v3h13V0zm1 14v-2h1v-1H2V4h1V3H2V1h11v13z"/></svg>

<svg xmlns="http://www.w3.org/2000/svg" viewBox="0 0 14 15"><title>Asset 47</title><path d="M11,7V3H5V7ZM6,6V4h4V6Z"/><path d="M1,0V3H0V4H1v7H0v1H1v3H14V0ZM2,14V12H3V11H2V4H3V3H2V1H13V14Z"/></svg>
